;FLAVOR:Marlin
;TIME:11867
;Filament used: 10.6071m
;Layer height: 0.2
;MINX:36.389
;MINY:36.365
;MINZ:0.2
;MAXX:183.656
;MAXY:183.635
;MAXZ:15
;TARGET_MACHINE.NAME:Creality Ender-3 S1 Pro
;Generated with Cura_SteamEngine 5.8.1
M82 ;absolute extrusion mode
; Ender 3 S1 Pro Start G-code
; M413 S0 ; Disable power loss recovery
G92 E0 ; Reset Extruder

; Prep surfaces before auto home for better accuracy
M140 S60
M104 S200

G28 ; Home all axes
G1 Z10.0 F3000 ; Move Z Axis up little to prevent scratching of Heat Bed
G1 X0 Y0

M190 S60
M109 S200

G1 X0.1 Y20 Z0.3 F5000.0 ; Move to start position
G1 X0.1 Y200.0 Z0.3 F1500.0 E15 ; Draw the first line
G1 X0.4 Y200.0 Z0.3 F5000.0 ; Move to side a little
G1 X0.4 Y20 Z0.3 F1500.0 E30 ; Draw the second line
G92 E0 ; Reset Extruder
G1 Z2.0 F3000 ; Move Z Axis up little to prevent scratching of Heat Bed
G1 X5 Y20 Z0.3 F5000.0 ; Move over to prevent blob squish

G92 E0
G92 E0
G1 F2400 E-0.8
;LAYER_COUNT:75
;LAYER:0
M107
M204 S2000
G0 F7500 X57.591 Y58.296 Z0.2
M204 S500
;TYPE:SKIRT
G1 F2400 E0
G1 F1500 X58.287 Y57.611 E0.03248
G1 X59.996 Y55.976 E0.11115
G1 X60.812 Y55.223 E0.14808
G1 X61.49 Y54.629 E0.17806
G1 X63.428 Y52.987 E0.26254
G1 X64.191 Y52.366 E0.29526
G1 X64.977 Y51.758 E0.32831
G1 X66.836 Y50.364 E0.40559
G1 X67.696 Y49.745 E0.44084
G1 X68.54 Y49.169 E0.47482
G1 X70.603 Y47.808 E0.55702
G1 X71.361 Y47.33 E0.58683
G1 X72.3 Y46.767 E0.62324
G1 X74.346 Y45.589 E0.70177
G1 X75.211 Y45.111 E0.73464
G1 X76.118 Y44.64 E0.76863
G1 X78.185 Y43.607 E0.84549
G1 X79.126 Y43.158 E0.88016
G1 X80.105 Y42.722 E0.91581
G1 X82.19 Y41.83 E0.99124
G1 X83.188 Y41.425 E1.02706
G1 X84.177 Y41.054 E1.06219
G1 X86.32 Y40.287 E1.1379
G1 X87.337 Y39.943 E1.1736
G1 X88.176 Y39.683 E1.20282
G1 X90.677 Y38.953 E1.28947
G1 X91.583 Y38.707 E1.3207
G1 X92.564 Y38.468 E1.35428
G1 X94.796 Y37.959 E1.43042
G1 X95.861 Y37.734 E1.46663
G1 X96.934 Y37.54 E1.50289
G1 X99.223 Y37.162 E1.58006
G1 X100.245 Y37.013 E1.61441
G1 X101.242 Y36.893 E1.64781
G1 X103.687 Y36.636 E1.72958
G1 X104.577 Y36.562 E1.75928
G1 X105.672 Y36.495 E1.79577
G1 X107.861 Y36.397 E1.86865
G1 X109.001 Y36.366 E1.90658
G1 X109.915 Y36.365 E1.93698
G1 X112.424 Y36.403 E2.02044
G1 X113.419 Y36.438 E2.05355
G1 X114.441 Y36.498 E2.0876
G1 X116.74 Y36.671 E2.16428
G1 X117.797 Y36.77 E2.19959
G1 X118.807 Y36.892 E2.23343
G1 X121.291 Y37.228 E2.3168
G1 X121.845 Y37.312 E2.33544
G1 X123.222 Y37.559 E2.38197
G1 X125.428 Y37.993 E2.45675
G1 X126.494 Y38.222 E2.49301
G1 X127.5 Y38.469 E2.52746
G1 X129.814 Y39.072 E2.607
G1 X130.761 Y39.338 E2.63971
G1 X131.754 Y39.645 E2.67428
G1 X134.079 Y40.401 E2.7556
G1 X134.934 Y40.698 E2.7857
G1 X135.905 Y41.063 E2.82021
G1 X138.137 Y41.94 E2.89997
G1 X139.067 Y42.326 E2.93346
G1 X139.845 Y42.672 E2.96178
G1 X142.167 Y43.746 E3.04687
G1 X143.038 Y44.169 E3.07907
G1 X143.979 Y44.659 E3.11436
G1 X145.989 Y45.741 E3.19028
G1 X146.921 Y46.265 E3.22585
G1 X147.792 Y46.788 E3.25964
G1 X149.87 Y48.071 E3.34086
G1 X150.671 Y48.589 E3.37259
G1 X151.51 Y49.161 E3.40636
G1 X153.385 Y50.481 E3.48263
G1 X154.266 Y51.124 E3.51891
G1 X154.937 Y51.642 E3.5471
G1 X156.993 Y53.281 E3.63455
G1 X157.697 Y53.867 E3.66502
G1 X158.478 Y54.548 E3.69948
G1 X160.177 Y56.079 E3.77555
G1 X160.968 Y56.817 E3.81153
G1 X161.748 Y57.587 E3.84799
G1 X163.388 Y59.253 E3.92574
G1 X163.861 Y59.748 E3.94851
G1 X164.64 Y60.604 E3.98701
G1 X166.337 Y62.547 E4.07281
G1 X166.966 Y63.295 E4.10532
G1 X167.529 Y64.002 E4.13538
G1 X169.036 Y65.95 E4.21729
G1 X169.682 Y66.818 E4.25328
G1 X170.148 Y67.481 E4.28023
G1 X171.613 Y69.626 E4.36663
G1 X172.135 Y70.425 E4.39837
G1 X172.573 Y71.133 E4.42606
G1 X173.909 Y73.369 E4.5127
G1 X174.383 Y74.198 E4.54446
G1 X174.889 Y75.139 E4.57999
G1 X175.939 Y77.163 E4.65583
G1 X176.408 Y78.108 E4.69092
G1 X176.832 Y79.023 E4.72446
G1 X177.772 Y81.136 E4.80138
G1 X178.199 Y82.143 E4.83776
G1 X178.573 Y83.092 E4.87169
G1 X179.426 Y85.37 E4.95259
G1 X179.74 Y86.261 E4.98401
G1 X180.07 Y87.277 E5.01954
G1 X180.784 Y89.591 E5.10009
G1 X181.041 Y90.494 E5.13131
G1 X181.295 Y91.469 E5.16482
G1 X181.863 Y93.806 E5.24482
G1 X182.077 Y94.762 E5.2774
G1 X182.283 Y95.802 E5.31266
G1 X182.706 Y98.143 E5.39178
G1 X182.862 Y99.116 E5.42456
G1 X182.999 Y100.127 E5.45849
G1 X183.273 Y102.397 E5.53454
G1 X183.38 Y103.447 E5.56965
G1 X183.461 Y104.544 E5.60623
G1 X183.594 Y106.743 E5.6795
G1 X183.642 Y107.894 E5.71782
G1 X183.655 Y108.731 E5.74566
G1 X183.656 Y111.182 E5.82718
G1 X183.637 Y112.261 E5.86308
G1 X183.586 Y113.36 E5.89967
G1 X183.447 Y115.686 E5.97717
G1 X183.368 Y116.685 E6.0105
G1 X183.258 Y117.727 E6.04535
G1 X182.977 Y120.046 E6.12304
G1 X182.835 Y121.077 E6.15766
G1 X182.667 Y122.082 E6.19155
G1 X182.26 Y124.315 E6.26704
G1 X182.053 Y125.353 E6.30225
G1 X181.81 Y126.427 E6.33887
G1 X181.282 Y128.586 E6.4128
G1 X180.995 Y129.672 E6.45016
G1 X180.704 Y130.665 E6.48457
G1 X179.991 Y132.978 E6.56508
G1 X179.703 Y133.852 E6.59568
G1 X179.389 Y134.728 E6.62663
G1 X178.503 Y137.088 E6.71048
G1 X178.133 Y138.021 E6.74386
G1 X177.803 Y138.791 E6.77172
G1 X176.741 Y141.178 E6.85862
G1 X176.357 Y141.996 E6.88867
G1 X175.944 Y142.825 E6.91948
G1 X174.775 Y145.076 E7.00384
G1 X174.314 Y145.923 E7.03591
G1 X173.782 Y146.844 E7.07129
G1 X172.603 Y148.82 E7.14782
G1 X172.064 Y149.686 E7.18175
G1 X171.481 Y150.568 E7.21691
G1 X170.178 Y152.478 E7.29381
G1 X169.571 Y153.335 E7.32874
G1 X168.927 Y154.192 E7.3644
G1 X167.575 Y155.941 E7.43792
G1 X166.846 Y156.852 E7.47673
G1 X166.19 Y157.622 E7.51038
G1 X164.71 Y159.318 E7.58524
G1 X163.954 Y160.152 E7.62268
G1 X163.262 Y160.878 E7.65604
G1 X161.584 Y162.579 E7.73551
G1 X160.842 Y163.303 E7.76999
G1 X160.245 Y163.858 E7.7971
G1 X158.403 Y165.518 E7.87958
G1 X157.591 Y166.224 E7.91536
G1 X156.919 Y166.777 E7.94431
G1 X154.882 Y168.401 E8.03096
G1 X154.165 Y168.95 E8.06099
G1 X153.4 Y169.507 E8.09247
G1 X151.447 Y170.883 E8.17193
G1 X150.543 Y171.496 E8.20826
G1 X149.785 Y171.98 E8.23817
G1 X147.585 Y173.339 E8.32418
G1 X146.788 Y173.81 E8.35497
G1 X145.885 Y174.314 E8.38936
G1 X143.904 Y175.38 E8.46418
G1 X142.897 Y175.9 E8.50188
G1 X141.991 Y176.337 E8.53533
G1 X139.753 Y177.372 E8.61735
G1 X138.899 Y177.747 E8.64837
G1 X138.092 Y178.077 E8.67737
G1 X135.726 Y179.007 E8.76192
G1 X134.781 Y179.358 E8.79545
G1 X133.826 Y179.682 E8.82899
G1 X131.676 Y180.382 E8.90419
G1 X130.613 Y180.706 E8.94116
G1 X129.589 Y180.988 E8.97648
G1 X127.451 Y181.544 E9.04996
G1 X126.311 Y181.818 E9.08895
G1 X125.363 Y182.019 E9.12119
G1 X123.131 Y182.46 E9.19686
G1 X121.998 Y182.663 E9.23514
G1 X121.019 Y182.809 E9.26806
G1 X118.589 Y183.137 E9.34962
G1 X117.627 Y183.248 E9.38183
G1 X116.814 Y183.322 E9.40898
G1 X114.191 Y183.518 E9.49646
G1 X113.265 Y183.57 E9.52731
G1 X112.205 Y183.6 E9.56258
G1 X109.991 Y183.635 E9.63623
G1 X108.87 Y183.632 E9.67351
G1 X107.765 Y183.599 E9.71028
G1 X105.527 Y183.497 E9.78479
G1 X104.458 Y183.429 E9.82042
G1 X103.435 Y183.338 E9.85458
G1 X100.993 Y183.08 E9.93625
G1 X100.379 Y183.007 E9.95682
G1 X99.188 Y182.832 E9.99686
G1 X96.681 Y182.415 E10.08139
G1 X95.721 Y182.237 E10.11386
G1 X94.73 Y182.028 E10.14755
G1 X92.331 Y181.477 E10.22942
G1 X91.437 Y181.256 E10.26005
G1 X90.59 Y181.022 E10.28927
G1 X88.08 Y180.29 E10.37623
G1 X87.209 Y180.016 E10.4066
G1 X86.227 Y179.681 E10.44111
G1 X84.098 Y178.917 E10.51634
G1 X83.027 Y178.511 E10.55444
G1 X82.119 Y178.138 E10.58709
G1 X79.893 Y177.187 E10.6676
G1 X79.002 Y176.784 E10.70012
G1 X78.056 Y176.329 E10.73504
G1 X75.916 Y175.257 E10.81465
G1 X75.064 Y174.809 E10.84666
G1 X74.149 Y174.298 E10.88152
G1 X72.103 Y173.116 E10.96011
G1 X71.248 Y172.601 E10.99331
G1 X70.379 Y172.046 E11.0276
G1 X68.454 Y170.777 E11.10429
G1 X67.607 Y170.195 E11.13847
G1 X66.741 Y169.564 E11.17411
G1 X64.816 Y168.12 E11.25414
G1 X64.034 Y167.51 E11.28713
G1 X63.276 Y166.886 E11.31979
G1 X61.495 Y165.375 E11.39747
G1 X60.712 Y164.687 E11.43214
G1 X59.936 Y163.966 E11.46737
G1 X58.197 Y162.304 E11.54737
G1 X57.53 Y161.64 E11.57868
G1 X56.778 Y160.852 E11.61491
G1 X55.219 Y159.173 E11.69111
G1 X54.523 Y158.394 E11.72585
G1 X53.961 Y157.731 E11.75476
G1 X52.437 Y155.879 E11.83454
G1 X51.727 Y154.984 E11.87253
G1 X51.097 Y154.144 E11.90746
G1 X49.68 Y152.192 E11.98768
G1 X49.15 Y151.432 E12.0185
G1 X48.567 Y150.548 E12.05372
G1 X47.341 Y148.628 E12.12949
G1 X46.783 Y147.718 E12.16499
G1 X46.323 Y146.923 E12.19554
G1 X45.148 Y144.822 E12.27561
G1 X44.637 Y143.865 E12.31169
G1 X44.235 Y143.063 E12.34153
G1 X42.917 Y140.307 E12.44313
G1 X42.73 Y139.896 E12.45815
G1 X42.318 Y138.928 E12.49314
G1 X41.386 Y136.653 E12.57491
G1 X41.066 Y135.827 E12.60438
G1 X40.699 Y134.802 E12.64059
G1 X39.97 Y132.668 E12.71559
G1 X39.641 Y131.644 E12.75136
G1 X39.347 Y130.639 E12.78619
G1 X38.697 Y128.274 E12.86777
G1 X38.471 Y127.382 E12.89837
G1 X38.245 Y126.386 E12.93234
G1 X37.776 Y124.186 E13.00716
G1 X37.557 Y123.06 E13.04531
G1 X37.389 Y122.05 E13.07937
G1 X37.034 Y119.689 E13.15878
G1 X36.911 Y118.743 E13.19051
G1 X36.796 Y117.641 E13.22736
G1 X36.583 Y115.261 E13.30683
G1 X36.517 Y114.338 E13.33761
G1 X36.477 Y113.463 E13.36674
G1 X36.398 Y110.83 E13.45436
G1 X36.389 Y109.949 E13.48366
G1 X36.401 Y109.066 E13.51303
G1 X36.479 Y106.459 E13.59978
G1 X36.527 Y105.508 E13.63145
G1 X36.603 Y104.508 E13.66481
G1 X36.807 Y102.222 E13.74114
G1 X36.922 Y101.168 E13.77641
G1 X37.073 Y100.046 E13.81406
G1 X37.398 Y97.9 E13.88625
G1 X37.594 Y96.744 E13.92525
G1 X37.788 Y95.759 E13.95864
G1 X38.257 Y93.55 E14.03375
G1 X38.509 Y92.462 E14.07089
G1 X38.722 Y91.633 E14.09936
G1 X39.406 Y89.156 E14.18483
G1 X39.679 Y88.233 E14.21684
G1 X39.969 Y87.338 E14.24814
G1 X40.775 Y84.98 E14.33102
G1 X41.119 Y84.035 E14.36447
G1 X41.493 Y83.085 E14.39842
G1 X42.403 Y80.866 E14.47819
G1 X42.802 Y79.942 E14.51167
G1 X43.149 Y79.196 E14.53903
G1 X44.267 Y76.873 E14.62478
G1 X44.691 Y76.032 E14.6561
G1 X45.221 Y75.049 E14.69325
G1 X46.365 Y73 E14.7713
G1 X46.864 Y72.145 E14.80423
G1 X47.299 Y71.44 E14.83178
G1 X48.701 Y69.244 E14.91844
G1 X49.218 Y68.47 E14.94939
G1 X49.843 Y67.583 E14.98548
G1 X51.239 Y65.664 E15.06441
G1 X51.825 Y64.889 E15.09673
G1 X52.468 Y64.082 E15.13105
G1 X54.012 Y62.205 E15.21188
G1 X54.422 Y61.724 E15.2329
G1 X55.216 Y60.834 E15.27257
G1 X56.982 Y58.927 E15.35902
G1 X57.591 Y58.296 E15.38819
M204 S2000
G0 F7500 X57.872 Y58.581
M204 S500
G1 F1500 X58.563 Y57.9 E15.42046
G1 X60.267 Y56.27 E15.49889
G1 X61.075 Y55.524 E15.53546
G1 X61.749 Y54.934 E15.56526
G1 X63.68 Y53.297 E15.64945
G1 X64.436 Y52.682 E15.68187
G1 X65.217 Y52.078 E15.71471
G1 X67.07 Y50.689 E15.79173
G1 X67.922 Y50.075 E15.82666
G1 X68.76 Y49.503 E15.86041
G1 X70.816 Y48.146 E15.94234
G1 X71.566 Y47.673 E15.97183
G1 X72.5 Y47.114 E16.00804
G1 X74.54 Y45.939 E16.08634
G1 X75.395 Y45.466 E16.11884
G1 X76.297 Y44.998 E16.15263
G1 X78.357 Y43.968 E16.22924
G1 X79.289 Y43.523 E16.26359
G1 X80.262 Y43.09 E16.29901
G1 X82.34 Y42.201 E16.37418
G1 X83.328 Y41.8 E16.40965
G1 X84.312 Y41.431 E16.4446
G1 X86.448 Y40.666 E16.52006
G1 X87.455 Y40.325 E16.55543
G1 X88.288 Y40.067 E16.58443
G1 X90.782 Y39.339 E16.67084
G1 X91.678 Y39.096 E16.70172
G1 X92.653 Y38.858 E16.7351
G1 X94.878 Y38.35 E16.81101
G1 X95.932 Y38.128 E16.84683
G1 X96.999 Y37.935 E16.8829
G1 X99.281 Y37.558 E16.95983
G1 X100.293 Y37.41 E16.99384
G1 X101.284 Y37.291 E17.02704
G1 X103.72 Y37.035 E17.10851
G1 X104.601 Y36.961 E17.13791
G1 X105.69 Y36.895 E17.1742
G1 X107.872 Y36.797 E17.24685
G1 X109.001 Y36.766 E17.28441
G1 X109.909 Y36.765 E17.31461
G1 X112.41 Y36.803 E17.39781
G1 X113.395 Y36.837 E17.43059
G1 X114.411 Y36.897 E17.46444
G1 X116.703 Y37.069 E17.54089
G1 X117.749 Y37.167 E17.57583
G1 X118.753 Y37.288 E17.60946
G1 X121.231 Y37.624 E17.69264
G1 X121.775 Y37.706 E17.71093
G1 X123.145 Y37.951 E17.75722
G1 X125.344 Y38.384 E17.83177
G1 X126.399 Y38.611 E17.86766
G1 X127.399 Y38.856 E17.9019
G1 X129.706 Y39.457 E17.98119
G1 X130.643 Y39.72 E18.01356
G1 X131.63 Y40.025 E18.04792
G1 X133.948 Y40.779 E18.129
G1 X134.793 Y41.072 E18.15874
G1 X135.759 Y41.435 E18.19307
G1 X137.984 Y42.309 E18.27257
G1 X138.904 Y42.691 E18.30571
G1 X139.677 Y43.035 E18.33385
G1 X141.992 Y44.106 E18.41868
G1 X142.853 Y44.524 E18.45052
G1 X143.789 Y45.011 E18.48561
G1 X145.793 Y46.09 E18.56131
G1 X146.715 Y46.608 E18.59649
G1 X147.582 Y47.128 E18.63011
G1 X149.653 Y48.407 E18.71107
G1 X150.446 Y48.919 E18.74247
G1 X151.28 Y49.488 E18.77605
G1 X153.149 Y50.804 E18.85207
G1 X154.022 Y51.441 E18.88802
G1 X154.688 Y51.955 E18.916
G1 X156.737 Y53.588 E19.00314
G1 X157.434 Y54.168 E19.0333
G1 X158.21 Y54.845 E19.06755
G1 X159.904 Y56.371 E19.14339
G1 X160.687 Y57.102 E19.17901
G1 X161.463 Y57.868 E19.21528
G1 X163.099 Y59.53 E19.29285
G1 X163.565 Y60.017 E19.31527
G1 X164.339 Y60.867 E19.3535
G1 X166.031 Y62.804 E19.43904
G1 X166.653 Y63.544 E19.4712
G1 X167.213 Y64.247 E19.50109
G1 X168.715 Y66.189 E19.58275
G1 X169.355 Y67.048 E19.61837
G1 X169.818 Y67.707 E19.64516
G1 X171.278 Y69.845 E19.73127
G1 X171.795 Y70.635 E19.76267
G1 X172.23 Y71.338 E19.79017
G1 X173.562 Y73.567 E19.87653
G1 X174.031 Y74.388 E19.90798
G1 X174.534 Y75.323 E19.94329
G1 X175.581 Y77.341 E20.01891
G1 X176.045 Y78.276 E20.05363
G1 X176.467 Y79.186 E20.08699
G1 X177.404 Y81.292 E20.16366
G1 X177.827 Y82.29 E20.19971
G1 X178.198 Y83.232 E20.23338
G1 X179.049 Y85.503 E20.31404
G1 X179.36 Y86.385 E20.34515
G1 X179.688 Y87.395 E20.38047
G1 X180.399 Y89.701 E20.46073
G1 X180.654 Y90.595 E20.49165
G1 X180.906 Y91.564 E20.52495
G1 X181.473 Y93.893 E20.60468
G1 X181.685 Y94.839 E20.63692
G1 X181.889 Y95.873 E20.67198
G1 X182.311 Y98.206 E20.75083
G1 X182.466 Y99.17 E20.7833
G1 X182.602 Y100.175 E20.81704
G1 X182.875 Y102.438 E20.89285
G1 X182.981 Y103.477 E20.92759
G1 X183.062 Y104.568 E20.96397
G1 X183.194 Y106.76 E21.03701
G1 X183.242 Y107.9 E21.07496
G1 X183.255 Y108.731 E21.1026
G1 X183.256 Y111.175 E21.18389
G1 X183.237 Y112.243 E21.21942
G1 X183.187 Y113.336 E21.25581
G1 X183.048 Y115.655 E21.33308
G1 X182.97 Y116.643 E21.36604
G1 X182.861 Y117.679 E21.40069
G1 X182.581 Y119.991 E21.47815
G1 X182.44 Y121.011 E21.5124
G1 X182.273 Y122.01 E21.54608
G1 X181.868 Y124.237 E21.62137
G1 X181.663 Y125.265 E21.65623
G1 X181.421 Y126.332 E21.69262
G1 X180.895 Y128.484 E21.76631
G1 X180.611 Y129.56 E21.80332
G1 X180.322 Y130.547 E21.83753
G1 X179.611 Y132.853 E21.91779
G1 X179.326 Y133.717 E21.94805
G1 X179.015 Y134.587 E21.97878
G1 X178.131 Y136.941 E22.06241
G1 X177.765 Y137.864 E22.09543
G1 X177.438 Y138.628 E22.12308
G1 X176.379 Y141.008 E22.20972
G1 X175.999 Y141.818 E22.23948
G1 X175.589 Y142.641 E22.27006
G1 X174.424 Y144.885 E22.35415
G1 X173.968 Y145.723 E22.38588
G1 X173.439 Y146.639 E22.42106
G1 X172.263 Y148.609 E22.49737
G1 X171.73 Y149.466 E22.53094
G1 X171.151 Y150.343 E22.56589
G1 X169.852 Y152.247 E22.64256
G1 X169.251 Y153.095 E22.67713
G1 X168.611 Y153.947 E22.71257
G1 X167.263 Y155.691 E22.78588
G1 X166.541 Y156.593 E22.82431
G1 X165.889 Y157.359 E22.85776
G1 X164.414 Y159.049 E22.93237
G1 X163.665 Y159.876 E22.96948
G1 X162.977 Y160.597 E23.00263
G1 X161.304 Y162.293 E23.08186
G1 X160.57 Y163.01 E23.11599
G1 X159.977 Y163.561 E23.14292
G1 X158.141 Y165.216 E23.22513
G1 X157.337 Y165.915 E23.26056
G1 X156.67 Y166.464 E23.2893
G1 X154.639 Y168.083 E23.37568
G1 X153.929 Y168.627 E23.40543
G1 X153.17 Y169.18 E23.43667
G1 X151.222 Y170.552 E23.51592
G1 X150.328 Y171.159 E23.55186
G1 X149.575 Y171.64 E23.58157
G1 X147.382 Y172.995 E23.66731
G1 X146.593 Y173.461 E23.69779
G1 X145.695 Y173.962 E23.73199
G1 X143.72 Y175.025 E23.80659
G1 X142.723 Y175.54 E23.84391
G1 X141.823 Y175.974 E23.87715
G1 X139.592 Y177.006 E23.95891
G1 X138.748 Y177.377 E23.98957
G1 X137.946 Y177.705 E24.01839
G1 X135.587 Y178.632 E24.10269
G1 X134.652 Y178.979 E24.13586
G1 X133.702 Y179.302 E24.16923
G1 X131.559 Y179.999 E24.24419
G1 X130.507 Y180.32 E24.28077
G1 X129.488 Y180.601 E24.31593
G1 X127.357 Y181.155 E24.38916
G1 X126.228 Y181.427 E24.42778
G1 X125.286 Y181.627 E24.45981
G1 X123.06 Y182.066 E24.53528
G1 X121.939 Y182.267 E24.57316
G1 X120.966 Y182.413 E24.60588
G1 X118.543 Y182.74 E24.6872
